X: 40176
T: Time Has Not Been Kind
R: jig
M: 6/8
K: Aminor
|:ecA ecA|Bcd Bcc|ecA ecA|Bcd c3|
cde fed|Bcd Bcc|fed ecA|BAG A3:|
aec Ace|Bcd Bcc|aec ecA|Bcd c3|
aec Ace|Bcd Bcc|aec ecA|BAG A3|
GAB ccc|dcB ccc|GAB ccc|dcB c3|
aec Ace|dcB ccc|aec ecA|BAG A3|

